X: 1244
T: Keklik Gibi Kanadımı Süzmedim
C: Salih Dündar
O: Turkey
F: http://compmusic.upf.edu/node/140
N: muhayyer--turku--sofyan--keklik_gibi--erzincan
N: makam= muhayyer
N: form= turku
N: usul= sofyan = 4/4
M: 4/4
L: 1/16
K: C _2/4B ^3/4f  
Q: 1/4=90
%%MIDI tuningsystem comma53
z4 f2g2 a4 a4  | g2fg e2d2 d2cd c2B2  | \
w:   |   | 
c2Bc B2A2 A4 defg  | 
w:   | 
a4 f2g2 a4 a4  | g2fg e2d2 d2cd c2B2  | \
w:   |   | 
c2Bc B2A2 A4 defg  | 
w:   | 
a4 f2g2 a2a6  | a2a6 a2a6  | a2c'2 b2a2 a2gf gfg2  | \
w:  *  Kek lik  gi bi   |  ka na dı mı   |  süz *  me *  dim    | 
z4 g2fg a2a6  | 
w:  Mu rad_ *  a lıp   | 
a2a2 abg2 g2gf gaf2  | f3e fge2 e4 efd2  | \
w:  do ya  *  *  *  do ya   |  gez *  me *  *  dim    | 
z4 f2g2 a2a6  | 
w:  Bu  ka ra  ya  | 
a2{c'}ba a4 a2gf g2g2  | g2e4d2 d2cd e3d  | \
w:  zı *  yı  *  *  ken dim   |  yaz ma *  dım    | 
z4 c2d2 e2e4d2  | 
w:  Al nı ma  ya  | 
{d}g2ge e3d d2ed d3c  | d2d2 Bc3 c2Bc d4  | \
w:  *  zıl mış  *  *  *  bu  ka  |  ra  ya *  *  zı    | 
z4 BcBc d2d4B2  | 
w:  Ka *  der  *  böy le   | 
d2c4B2 c2Bc B3A  | A2c2 B2B/c/A A4 A3B/A/  | \
w:  i miş  *  ağ la  |  rım  ba *  *  *  *  zı    | 
z4 cBc2 c4 cdB2  | 
w:  Gö *  nül  ey   | 
B4 B2cA A8  | AcB2 B3A A8  | z4 f2g2 a4 a4  | \
w:  ey  *  *  *  ey   |  se *  bep_ *  *  ey    |   | 
g2fg e2d2 d2cd c2B2  | 
w:   | 
c2Bc B2A2 A4 defg  | a4 f2g2 a4 a4  | \
w:   |   | 
g2fg e2d2 d2cd c2B2  | 
w:   | 
c2Bc B2A2 A4 defg  | a4 f2g2 a2a6  | \
w:   |  *  Kek lik  gi bi   | 
a2a6 a2a6  | a2c'2 b2a2 a2gf gfg2  | 
w:  ka na dı mı   |  süz *  me *  dim    | 
z4 g2fg a2a6  | a2a2 abg2 g2gf gaf2  | \
w:  Mu rad_ *  a lıp   |  do ya  *  *  *  do ya   | 
f3e fge2 e4 efd2  | 
w:  gez *  me *  *  dim    | 
z4 f2g2 a2a6  | a2{c'}ba a4 a2gf g2g2  | \
w:  Bu  ka ra  ya  |  zı *  yı  *  *  ken dim   | 
g2e4d2 d2cd e3d  | 
w:  yaz ma *  dım    | 
z4 c2d2 e2e4d2  | {d}g2ge e3d d2ed d3c  | \
w:  Al nı ma  ya  |  *  zıl mış  *  *  *  bu  ka  | 
d2d2 Bc3 c2Bc d4  | 
w:  ra  ya *  *  zı    | 
z4 BcBc d2d4B2  | d2c4B2 c2Bc B3A  | \
w:  Ka *  der  *  böy le   |  i miş  *  ağ la  | 
A2c2 B2B/c/A A4 A3B/A/  | 
w:  rım  ba *  *  *  *  zı    | 
z4 cBc2 c4 cdB2  | B4 B2cA A8  | AcB2 B3A A8  | |


